public/img/team/vita.svg

<svg width="197" height="220" viewBox="0 0 197 220" fill="none" xmlns="http://www.w3.org/2000/svg">
<path d="M53.234 16.1865C65.2275 8.31928 92.3507 6.69753 104.413 6.87006C127.991 5.08054 161.449 52.0164 175.231 75.7081C180.401 91.2354 190.223 124.257 188.155 132.124C185.57 141.958 169.027 154.897 165.926 156.968C162.824 159.038 143.696 167.319 139.561 172.495C135.425 177.671 102.34 190.61 88.8986 191.128C75.4577 191.645 42.8948 175.083 40.827 172.495C38.7591 169.907 3.60587 130.571 4.12283 114.009C4.63979 97.4463 11.8772 81.4014 13.9451 75.7081C16.0129 70.0147 38.2422 26.0204 53.234 16.1865Z" fill="#BEB5A8"/>
<path d="M12.1406 195.604C12.1935 195.105 12.188 194.542 12.4269 194.145C12.577 194.878 12.5474 195.147 12.5332 195.911C12.3778 195.621 12.4872 195.741 12.1406 195.604Z" fill="#928F96"/>
<path d="M103.001 141.539C104.97 141.745 106.409 143.519 105.286 145.192C103.561 147.762 98.7931 149.688 95.8571 150.605C87.1209 153.335 75.8633 152.565 67.7916 148.404C66.5023 147.646 65.8096 147.314 65.1807 145.822C64.5895 144.382 66.0691 143.103 67.4315 143.234C68.3835 143.325 69.2228 143.763 70.0802 144.17C78.6175 148.232 90.2614 148.655 98.6916 144.079C100.404 143.149 100.997 141.945 103.001 141.539Z" fill="black"/>
<path d="M117.296 91.3967C123.743 90.5355 133.381 93.8361 136.634 100.147C136.858 100.582 136.761 101.437 136.502 101.862C134.669 104.868 131.273 100.727 129.476 99.7323C128.764 99.3237 128.117 98.8691 127.423 98.4717C127.814 102.537 127.687 104.977 124.511 108.016C120.631 110.494 116.965 108.946 115.483 104.709C114.491 101.876 114.929 99.413 116.188 96.7685C114.453 97.0185 113.352 97.3174 111.691 97.8953C110.229 98.4044 107.441 100.345 106.046 99.2095C105.034 98.3833 104.891 96.8562 105.849 95.9145C108.8 93.0134 113.279 91.783 117.296 91.3967Z" fill="black"/>
<path d="M50.5648 89.1468C53.288 88.6676 56.744 89.2559 59.7059 90.2131C61.9859 90.9408 70.3312 96.1454 65.171 98.3716C64.055 98.8531 60.6974 96.5466 59.5312 95.9476C60.2194 98.2524 60.416 100.668 59.4232 102.921C57.798 106.608 54.628 107.892 50.9982 106.209C47.5785 103.497 46.2783 99.0575 48.2059 95.0471C44.2578 96.1274 42.1354 98.0187 38.6842 99.792C37.4317 100.435 35.1113 98.3043 36.7568 96.2674C40.2652 91.9248 45.1461 89.9504 50.5648 89.1468Z" fill="black"/>
<path d="M67.5686 2.06252C73.808 0.383824 83.275 -1.42668 89.2356 1.73049C90.2316 2.26017 91.003 2.94311 91.2659 4.07814C91.3898 4.60691 91.5147 5.668 91.2669 6.15236C88.861 10.8587 86.5715 15.5451 84.76 20.5264C84.2805 21.8442 83.7968 24.3427 82.176 24.624C80.5768 24.8573 78.7358 24.0731 77.1184 23.9756C75.6934 23.9208 73.5469 24.0154 72.1633 24.2149C58.3372 26.21 41.0118 34.2823 32.6096 45.6856C26.1437 54.4613 23.2462 66.3645 21.5413 76.9463C21.1982 79.0751 20.6981 82.0819 20.5393 84.1563C23.2794 83.7437 24.303 83.6011 27.1018 83.9248C34.7646 71.3992 54.7827 69.3954 66.5491 76.6973C69.422 78.4882 71.8455 80.9146 73.634 83.7891C74.253 84.7939 74.8784 86.0878 75.4885 87.0195C81.8194 86.145 88.1115 86.244 93.967 89.0147C95.4783 85.8108 97.2408 82.8599 99.9856 80.4658C111.246 70.648 132.387 71.5278 142.406 82.7813C143.199 83.6719 144.028 84.8655 144.735 85.8496C150.314 86.0353 153.041 87.2144 158.09 89.6651C159.161 90.1852 161.239 91.2511 162.247 91.5889C162.228 88.953 161.84 85.6845 161.525 83.0332L161.497 82.8067C159.959 69.8398 155.928 54.6305 146.271 45.2861C135.765 35.1233 119.874 28.6044 105.608 26.3955C103.502 26.0604 101.384 25.8185 99.259 25.6719C96.3216 25.4768 92.239 25.6809 89.4749 24.9356C88.7851 24.7496 88.0609 23.792 88.1995 23.0625C89.1179 18.2233 91.9361 12.9068 94.3225 8.60451C95.3948 6.67238 95.4115 5.11976 97.0139 3.59084C99.9918 0.750336 106.098 0.538848 109.924 0.760759C123.429 1.52679 136.099 7.21427 146.578 15.5869C150.588 18.7898 154.113 21.8189 157.529 25.4736C171.956 40.909 176.549 60.6134 181.907 80.2988C184.306 89.1061 189.556 98.4736 190.739 107.936C191.478 112.166 192.103 116.519 192.746 120.78C194.004 129.07 195.199 137.37 196.334 145.678C199.204 175.271 192.113 189.243 188.209 192.529C187.649 191.361 187.096 190.188 186.563 189.01C184.191 183.834 182.435 178.397 181.331 172.813C181.342 177.223 181.888 181.616 182.954 185.895C183.89 189.643 185.115 193.4 186.345 197.174L186.349 197.187C186.135 215.831 155.662 221.512 158.09 207.741C160.518 193.971 151.124 183.731 151.123 197.187C151.123 207.952 145.211 211.86 142.255 212.468C139.585 214.91 138.163 174.471 135.138 176.485C117.88 187.976 101.168 193.31 84.76 192.529C74.5543 192.042 55.2569 183.731 48.5286 178.543C49.5861 180.932 52.6576 190.387 56.1985 201.327C58.8286 209.158 59.6338 223.454 41.8167 217.99C33.8266 218.659 16.7853 215.18 12.5364 195.912C12.381 195.623 12.4899 195.742 12.1438 195.605C-1.23072 193.51 -0.916185 175.557 0.913336 166.842C1.77592 164.018 3.39769 155.576 2.98365 144.397C2.46608 130.423 0.74323 123.231 1.86353 103.51C2.9474 96.5454 4.15646 89.5796 5.53931 82.7334C5.95567 80.6724 6.88299 78.5855 7.22486 76.4873C7.85998 73.0051 8.22397 69.4961 8.85474 66.0088C10.4446 56.7258 13.6064 47.7818 18.2044 39.5625C24.9612 27.7615 32.6656 20.5529 43.9329 12.9922C51.7307 7.7597 58.3626 4.53955 67.5686 2.06252ZM24.6321 89.0244C23.9965 89.0477 23.1679 89.0533 22.5549 89.1426C21.577 89.3278 21.1389 89.4088 20.1936 89.7412C19.9052 96.0861 19.5183 101.968 19.719 108.351C19.9061 114.036 20.508 119.699 21.5188 125.298C24.2396 140.939 29.3941 154.047 40.2522 165.921C52.1503 179.064 67.8301 187.387 85.6409 188.411C104.429 189.652 121.919 181.821 135.8 169.522C145.976 160.506 152.292 147.854 157.796 135.642C158.488 134.108 160.027 131.248 161.99 131.242C164.519 131.236 163.537 135.25 163.27 136.805C174.14 132.05 182.485 117.053 181.593 105.237C181.143 99.2955 177.144 94.1081 170.557 97.1192C169.697 97.6272 169.09 97.9863 168.397 98.7442C168.316 99.8194 169.171 113.446 163.149 107.881C162.082 106.896 162.547 100.243 162.297 97.9815C159.848 96.3899 150.221 92.2428 147.432 91.5156C147.792 93.6244 148.195 95.7687 148.247 97.9024C148.555 110.45 141.63 120.958 129.446 124.471C114.811 128.688 100.282 123.448 94.5891 108.791C92.6134 103.703 92.3189 99.3437 92.6399 93.9834C88.7108 91.3815 82.7367 91.0676 78.1008 91.5332C77.7116 91.5724 77.3415 91.8021 77.1106 92.1182C77.0642 93.3451 77.359 94.4997 77.4104 95.7051C77.6059 100.292 77.0359 104.918 74.9231 109.047C74.2944 110.275 73.9014 111.721 73.2805 112.961C71.831 115.776 69.5883 117.949 71.134 121.327C73.285 126.028 78.6672 127.202 83.3167 126.088C84.8454 125.722 87.1335 125.227 88.4329 126.328C89.2527 127.002 89.1069 128.89 88.2288 129.544C82.3153 133.189 73.316 131.888 68.8538 126.76C67.091 124.708 66.0596 122.129 65.9211 119.428C49.4842 127.611 31.0215 123.936 24.9719 104.802C23.2001 99.1974 23.3203 94.6922 24.6321 89.0244ZM11.4397 92.8223C9.45339 94.3715 8.86554 96.9872 8.60181 99.3838C7.65483 107.989 9.40518 118.297 14.9612 125.165L16.1272 126.562C15.8556 123.549 15.4515 120.554 15.2385 117.549C14.9774 113.581 14.925 109.602 15.0813 105.628C15.1991 101.888 15.6971 98.597 15.9006 95.0322C14.7277 93.8331 13.5738 92.8654 11.7805 92.8223C11.667 92.8199 11.5532 92.8197 11.4397 92.8223ZM136.355 83.6934C131.531 79.8892 124.433 78.4222 118.47 78.8555C112.019 79.2396 106.333 80.7559 101.833 85.7432C98.4167 89.5279 97.2593 94.3699 97.6057 99.377C98.0403 105.65 100.562 111.856 105.379 116.068C110 120.108 115.677 121.24 121.659 120.885C121.759 120.879 122.067 120.856 122.179 120.831C128.339 120.27 134.4 118.007 138.316 113.13C145.06 104.732 145.224 90.6891 136.355 83.6934ZM65.7922 82.1367C60.9125 78.2096 54.6701 77.1382 48.5745 77.5088C42.4331 77.9323 36.97 79.6674 32.7776 84.4287C25.4969 92.6981 28.3879 107.345 36.3997 114.096C40.7515 117.763 47.208 119.382 52.8157 118.544C58.2821 118.003 63.8256 115.865 67.3938 111.55C74.1704 103.354 74.4958 89.1415 65.7922 82.1367Z" fill="black"/>
</svg>

<svg xmlns="http://www.w3.org/2000/svg" width="197" height="220" fill="none" viewBox="0 0 197 220"><path fill="#beb5a8" d="M53.2 16.2c12-7.9 39.2-9.5 51.2-9.3C128 5 161.4 52 175.2 75.7c5.2 15.5 15 48.6 13 56.4-2.6 9.9-19.2 22.8-22.3 24.9-3 2-22.2 10.3-26.3 15.5s-37.3 18.1-50.7 18.6-46-16-48-18.6c-2.1-2.6-37.3-42-36.8-58.5.5-16.6 7.8-32.6 9.8-38.3S38.2 26 53.2 16.2"/><path fill="#928f96" d="M12.1 195.6q0-.8.3-1.5c.2.8.1 1 .1 1.8q0-.3-.4-.3"/><path fill="#000" d="M103 141.5c2 .2 3.4 2 2.3 3.7-1.7 2.6-6.5 4.5-9.4 5.4-8.8 2.7-20 2-28.1-2.2-1.3-.8-2-1-2.6-2.6-.6-1.4.9-2.7 2.2-2.6q1.4.3 2.7 1c8.5 4 20.2 4.5 28.6-.1 1.7-1 2.3-2.2 4.3-2.6m14.3-50.1c6.4-.9 16 2.4 19.3 8.7q.4.9-.1 1.8c-1.8 3-5.2-1.2-7-2.2l-2-1.2c.3 4 .2 6.5-3 9.5-3.9 2.5-7.5 1-9-3.3q-1.4-4 .7-8a25 25 0 0 0-4.5 1.2c-1.5.5-4.3 2.4-5.7 1.3-1-.8-1.1-2.3-.2-3.3a19 19 0 0 1 11.5-4.5m-66.7-2.3c2.7-.4 6.1.2 9.1 1.1 2.3.7 10.6 6 5.5 8.2-1.1.5-4.5-1.9-5.7-2.5a10 10 0 0 1 0 7c-1.7 3.7-4.9 5-8.5 3.3A9 9 0 0 1 48.2 95c-4 1.1-6 3-9.5 4.8-1.3.6-3.6-1.5-2-3.5 3.6-4.4 8.4-6.3 13.9-7.2"/><path fill="#000" d="M67.6 2c6.2-1.6 15.7-3.4 21.6-.3q1.6.8 2 2.4c.2.5.3 1.6 0 2q-3.6 7-6.4 14.4c-.5 1.3-1 3.8-2.6 4.1s-3.5-.5-5-.6l-5 .2c-13.9 2-31.2 10-39.6 21.5a73 73 0 0 0-11 31.2c-.4 2.2-.9 5.2-1 7.3 2.7-.5 3.7-.6 6.5-.3 7.7-12.5 27.7-14.5 39.4-7.2q4.4 2.8 7.1 7c.7 1 1.3 2.4 1.9 3.3A32 32 0 0 1 94 89a25 25 0 0 1 6-8.5c11.2-9.9 32.4-9 42.4 2.3l2.3 3a28 28 0 0 1 13.4 3.9c1 .5 3.1 1.6 4.1 1.9 0-2.6-.4-6-.7-8.6v-.2c-1.5-13-5.6-28.2-15.2-37.5a78 78 0 0 0-47-19.6c-3-.2-7 0-9.8-.8-.7-.2-1.4-1.1-1.3-1.8a53 53 0 0 1 6.1-14.5c1-2 1.1-3.5 2.7-5 3-2.8 9.1-3 13-2.8 13.4.7 26.1 6.4 36.6 14.8a99 99 0 0 1 11 9.9c14.4 15.4 19 35.1 24.3 54.8 2.4 8.8 7.7 18.2 8.8 27.6q1.2 6.4 2 12.9l3.6 24.9c2.9 29.6-4.2 43.5-8 46.8q-1-1.7-1.7-3.5a73 73 0 0 1-5.3-16.2q0 6.7 1.7 13 1.4 5.7 3.3 11.4c-.2 18.6-30.6 24.3-28.2 10.5 2.4-13.7-7-24-7-10.5 0 10.8-5.9 14.7-8.8 15.3-2.7 2.4-4.1-38-7.2-36a83 83 0 0 1-50.3 16 90 90 0 0 1-36.3-14 508 508 0 0 1 7.7 22.8c2.6 7.9 3.4 22.2-14.4 16.7-8 .7-25-2.8-29.3-22q0-.4-.4-.4c-13.3-2-13-20-11.2-28.8.9-2.8 2.5-11.2 2-22.4-.4-14-2.2-21.2-1-40.9Q3.5 93 5.5 82.7c.5-2 1.4-4.1 1.7-6.2.7-3.5 1-7 1.7-10.5a75 75 0 0 1 35-53A74 74 0 0 1 67.6 2m-43 87-2 .1-2.4.6c-.3 6.4-.7 12.3-.5 18.7q.3 8.4 1.8 16.9a76 76 0 0 0 18.8 40.6 66 66 0 0 0 45.3 22.5 69 69 0 0 0 50.2-18.9 97 97 0 0 0 22-33.9c.7-1.5 2.2-4.4 4.2-4.4 2.5 0 1.5 4 1.3 5.6 10.8-4.7 19.2-19.7 18.3-31.6-.5-5.9-4.5-11-11-8q-1.2.5-2.2 1.5c0 1.1.8 14.7-5.3 9.2-1-1-.6-7.7-.8-10-2.5-1.5-12-5.7-14.9-6.4q.7 3.2.8 6.4c.4 12.5-6.6 23-18.8 26.6-14.6 4.2-29.1-1-34.8-15.7-2-5.1-2.3-9.5-2-14.8-3.9-2.6-9.9-3-14.5-2.5q-.7 0-1 .6l.3 3.6q.5 7-2.5 13.3l-1.6 4c-1.5 2.8-3.7 5-2.2 8.3 2.2 4.7 7.6 5.9 12.2 4.8 1.5-.4 3.8-.9 5.1.2.9.7.7 2.6-.2 3.2a16 16 0 0 1-19.3-2.7q-2.7-3.2-3-7.4c-16.4 8.2-34.9 4.5-41-14.6a28 28 0 0 1-.3-15.8m-13.2 3.8c-2 1.6-2.5 4.2-2.8 6.6-1 8.6.8 18.9 6.4 25.8l1.1 1.4-.9-9q-.3-6-.1-12 .3-5.4.8-10.6-1.6-2-4.1-2.2zm125-9.1c-4.9-3.8-12-5.3-18-4.8-6.4.3-12 1.9-16.6 6.8a18 18 0 0 0-4.2 13.7c.4 6.3 3 12.5 7.8 16.7a22 22 0 0 0 16.8 4.7c6.1-.5 12.2-2.8 16.1-7.7 6.8-8.4 7-22.4-2-29.4M65.8 82c-4.9-3.9-11.1-5-17.2-4.6-6.2.4-11.6 2.2-15.8 7-7.3 8.2-4.4 22.8 3.6 29.6a22 22 0 0 0 16.4 4.4 21 21 0 0 0 14.6-7c6.8-8.1 7.1-22.4-1.6-29.4"/></svg>
